X:1
T:Now's the Time
C:1945 - Charlie Parker
Z:www.realbook.site
L:1/8
M:4/4
I:linebreak $
K:F
V:1 treble nm=" " snm=" "
V:1
 C |:"F7" FFGC F2 z C |"Bb7" FFGC F2 z C |"F7" FFGC FFGC | FFGC F2 z C |$"Bb7" FFGC F B,3 | %6
"Bb7" FFGC"Bdim7" F =B,3 |"F7" FFGC FFGC | FFGC F2 z _A- |$"Gm7" AFD=B, D2 z2 |"C7" z G3 FGF_E | %11
"F7" z C2 z C2 z2 |"C7" z8 :| %13

